X:14816
T:Salors (Salours) hornpipe. GS.068
T:Fisher's Hp,aka. GS.068
T:Egg Hp,aka. GS.068
M:2/2
L:1/8
Q:180
S:George Spencer m/s, Leeds,1831
R:Hornpipe
O:England
A:Leeds
N:The title is given twice, in what may be different but similar
N:handwritings, 1st time 'Salors' 2nd time 'Salours' no repeats shown at
N:end of 1st section.. 1 - this bar badly blotted and unclear but see bar
N:3 of   this part.See GS.103 Morning Fair Hp...G.S.L. and what appears
N:to be 1881 not1831 written after double bar
N:on the stave - but it could be a badly written 1831..Cherri.
H:1831
Z:vmp.Cherri Graebe
K:D major
"No time sig. in ms"
A | dAFA GBAG | FDFD GBAG | FDFD GEGE | FDFD E2 (3ABc | dAFA GBAG |!
 FDFD GBAG |
FAcd fdec | d2d2d2 || (Bd) | "1" ecAc efgf |fdAd fgaf |! ecAc efgf | edc
B A2A2 | 
BGDG BcdB | AFDF ABcA | BdcB AGFE | D2D2D2 :||


